packages/ffe-icons/icons/open/500/md/currency_franc.svg

<svg xmlns="http://www.w3.org/2000/svg" height="24" viewBox="0 -960 960 960" width="24"><path d="M274.5-157.37v-74.499H240q-19.152 0-32.326-13.174T194.5-277.37q0-19.152 13.174-32.326T240-322.87h34.5v-479.76q0-19.153 13.174-32.327T320-848.131h360q19.152 0 32.326 13.174T725.5-802.63q0 19.152-13.174 32.326T680-757.13H365.5v231.63H640q19.152 0 32.326 13.174T685.5-480q0 19.152-13.174 32.326T640-434.5H365.5v111.63H480q19.152 0 32.326 13.174T525.5-277.37q0 19.153-13.174 32.327T480-231.869H365.5v74.499q0 19.153-13.174 32.327T320-111.869q-19.152 0-32.326-13.174T274.5-157.37Z"/></svg>

<svg xmlns="http://www.w3.org/2000/svg" height="24" viewBox="0 -960 960 960" width="24"><path d="M274.5-157.37v-74.5H240q-19.15 0-32.33-13.17-13.17-13.18-13.17-32.33t13.17-32.33q13.18-13.17 32.33-13.17h34.5v-479.76q0-19.15 13.17-32.33 13.18-13.17 32.33-13.17h360q19.15 0 32.33 13.17 13.17 13.18 13.17 32.33t-13.17 32.33q-13.18 13.17-32.33 13.17H365.5v231.63H640q19.15 0 32.33 13.17Q685.5-499.15 685.5-480t-13.17 32.33Q659.15-434.5 640-434.5H365.5v111.63H480q19.15 0 32.33 13.17 13.17 13.18 13.17 32.33t-13.17 32.33q-13.18 13.17-32.33 13.17H365.5v74.5q0 19.15-13.17 32.33-13.18 13.17-32.33 13.17t-32.33-13.17q-13.17-13.18-13.17-32.33Z"/></svg>
